!!!COM: de Machuat, Guillaume
!!!OTL: En mon cuer a un descort
!! Guillaume de Machaut, "En mon cuer a un descort" No. 24 from Volume 5 of
!! "Oeuvres Comple\tes" E/ditions de l'Oiseau-lyre (Monaco) -1977; p.45
!! the second ending is encoded.
**kern	**kern
*M3/4	*M3/4
=1	=1
2.A	4r
.	4E
.	4F
=2	=2
4G	4G
2D	2A
=3	=3
4.C	8c
.	4B-
8D	8A
4E	4G
=4	=4
4F	2.F
2A	.
=5	=5
2.G	4r
.	4Bn
.	4c
=6	=6
2D	4d
.	4c
4F	4d
=7	=7
4E	8d
.	4c
2D	.
.	8d
.	4B
=8	=8
2C	4c
.	4r
4r	4f
=9	=9
4G	8e
.	4d
2A	.
.	8e
.	4c
=10	=10
2.G	4d
.	4d
.	4B
=11	=11
2.E	4r
.	4B
.	4c#
=12	=12
4D	4d
2C	8e
.	8d
.	4e
=13	=13
4E	8d
.	4c
2F#	.
.	8B
.	4A
=14	=14
2.G	4G
.	4r
.	4F
=15	=15
2.A	4E
.	2F#
=16	=16
2.G	2.G
=17	=17
2.A	4r
.	4E
.	4F#
=18	=18
4G	4G
2D	2A
=19	=19
2.C	4.c
.	8d
.	4c
=20	=20
4.C	8c
.	4B
8D	8A
4E	4G
=21	=21
4F	4F
2G	2E
=22	=22
2.F	2.F
=23	=23
2.F	4r
.	4f
.	4f
=24	=24
2.G	4f
.	4f
.	4e
=25	=25
2.A	8e
.	4d
.	8e
.	4c
=26	=26
2.G	4d
.	4d
.	4B
=27	=27
4.G	4r
.	4B
8F	.
4E	4c#
=28	=28
4D	4d
2C	8e
.	8d
.	4e
=29	=29
4E	8d
.	4c
2F#	.
.	8B
.	4A
=30	=30
4r	4G
4G	4r
4F	4d
=31	=31
4E	4c
2D	2B
=32	=32
2.C	2.c
==	==
*-	*-
